icons/opera-fill.svg

<svg viewBox="0 0 24 24" fill="currentColor" xmlns="http://www.w3.org/2000/svg"><path d="M8.71014 6.365C7.60348 7.67 6.88848 9.60083 6.83848 11.765V12.235C6.88931 14.4 7.60348 16.3283 8.71014 17.6342C10.1443 19.4975 12.276 20.6792 14.6593 20.6792C16.1226 20.6792 17.4926 20.2317 18.6651 19.4533C16.9001 21.0383 14.5626 22 12.001 22C11.841 22 11.6818 21.9967 11.526 21.9883C6.22098 21.7408 2.00098 17.3633 2.00098 12C2.00098 6.47583 6.47848 2 12.001 2H12.0385C14.5843 2.01 16.9051 2.97167 18.666 4.54583C17.4926 3.77083 16.1235 3.32 14.6576 3.32C12.276 3.32 10.1435 4.50333 8.70764 6.365H8.71014ZM22.001 12C22.001 14.9633 20.7135 17.6233 18.666 19.4542C16.101 20.7042 13.711 19.83 12.9193 19.2833C15.4385 18.73 17.3418 15.6833 17.3418 12C17.3418 8.315 15.4393 5.27083 12.9193 4.71667C13.7101 4.17167 16.101 3.2975 18.666 4.54583C20.7135 6.375 22.001 9.0375 22.001 12Z"/></svg>

<svg xmlns="http://www.w3.org/2000/svg" viewBox="0 0 24 24">
    <g>
        <path fill="none" d="M0 0h24v24H0z"/>
        <path fill-rule="nonzero" d="M8.71 6.365c-1.108 1.305-1.823 3.236-1.873 5.4v.47c.051 2.165.766 4.093 1.872 5.4 1.434 1.862 3.566 3.044 5.95 3.044a7.208 7.208 0 0 0 4.005-1.226 9.94 9.94 0 0 1-7.139 2.535A9.998 9.998 0 0 1 2 12C2 6.476 6.478 2 12 2h.037a9.97 9.97 0 0 1 6.628 2.546 7.239 7.239 0 0 0-4.008-1.226c-2.382 0-4.514 1.183-5.95 3.045h.002zM22 12a9.969 9.969 0 0 1-3.335 7.454c-2.565 1.25-4.955.376-5.747-.17 2.52-.554 4.423-3.6 4.423-7.284 0-3.685-1.903-6.73-4.423-7.283.791-.545 3.182-1.42 5.747-.171A9.967 9.967 0 0 1 22 12z"/>
    </g>
</svg>
